src/android-volume-off.svg

<?xml version="1.0" encoding="utf-8"?>
<!-- Generated by IcoMoon.io -->
<!DOCTYPE svg PUBLIC "-//W3C//DTD SVG 1.1//EN" "http://www.w3.org/Graphics/SVG/1.1/DTD/svg11.dtd">
<svg version="1.1" xmlns="http://www.w3.org/2000/svg" xmlns:xlink="http://www.w3.org/1999/xlink" width="512" height="512" viewBox="0 0 512 512">
<path fill="#000000" d="M405.5 256c0 22.717-4.883 44.362-13.603 63.855l31.88 31.88c15.506-28.405 24.223-61.082 24.223-95.735 0-93.256-64-172.254-149-192v44.978c62 18.654 106.5 77.904 106.5 147.022z"></path>
<path fill="#000000" d="M256 80.458l-51.021 52.48 51.021 51.019z"></path>
<path fill="#000000" d="M420.842 396.885l-329.726-329.728-24 24 90.499 90.413-8.28 10.43h-85.335v128h85.334l106.666 111.543v-151.543l94.915 94.686c-15.12 12.757-32.915 22.527-51.915 28.336v44.978c31-7.172 58.996-22.163 82.315-42.809l39.61 39.693 24-24.043-24.002-24.039-0.081 0.083z"></path>
<path fill="#000000" d="M352.188 256c0-38.399-21.188-72.407-53.188-88.863v59.82l50.801 50.801c1.554-7.019 2.387-14.304 2.387-21.758z"></path>
</svg>

<?xml version="1.0" encoding="utf-8"?>
<!-- Generator: Adobe Illustrator 16.2.1, SVG Export Plug-In . SVG Version: 6.00 Build 0)  -->
<!DOCTYPE svg PUBLIC "-//W3C//DTD SVG 1.1//EN" "http://www.w3.org/Graphics/SVG/1.1/DTD/svg11.dtd">
<svg version="1.1" id="Layer_1" xmlns="http://www.w3.org/2000/svg" xmlns:xlink="http://www.w3.org/1999/xlink" x="0px" y="0px"
	 width="512px" height="512px" viewBox="0 0 512 512" enable-background="new 0 0 512 512" xml:space="preserve">
<g>
	<path d="M405.5,256c0,22.717-4.883,44.362-13.603,63.855l31.88,31.88C439.283,323.33,448,290.653,448,256
		c0-93.256-64-172.254-149-192v44.978C361,127.632,405.5,186.882,405.5,256z"/>
	<polygon points="256,80.458 204.979,132.938 256,183.957 	"/>
	<path d="M420.842,396.885L91.116,67.157l-24,24l90.499,90.413l-8.28,10.43H64v128h85.334L256,431.543V280l94.915,94.686
		C335.795,387.443,318,397.213,299,403.022V448c31-7.172,58.996-22.163,82.315-42.809l39.61,39.693l24-24.043l-24.002-24.039
		L420.842,396.885z"/>
	<path d="M352.188,256c0-38.399-21.188-72.407-53.188-88.863v59.82l50.801,50.801C351.355,270.739,352.188,263.454,352.188,256z"/>
</g>
</svg>
